!! G. F. Handel, "Fuga III" for keyboard (1735) from Hallische Haendel-Ausgabe
!! Baerenreiter Kassel (Basel) 1970; Serie IV, Band 6, pp.9-11
!! HHA iv/6,9   New Grove No. 37; for four voices.
!! NOTE:  Double-stops occur in bars 8, 9 and 77.  This file is highly
!!        interpretative concerning the voice assignment; innumerable
!!        'fixes' have been added to remedy abberant voicing.
!! NOTE:  This file has been validated through the double-entry method
!!        of error detection.
**kern	**kern	**kern	**kern
*M4/4	*M4/4	*M4/4	*M4/4
=1	=1	=1	=1
1r	1r	1r	2ff
.	.	.	4dd
.	.	.	4gg
=2	=2	=2	=2
1r	1r	4r	8ff
.	.	.	8ee-
.	.	4f	8dd
.	.	.	8cc
.	.	8g	4b-
.	.	8f	.
.	.	8g	[4ee-
.	.	8a	.
=3	=3	=3	=3
1r	2r	8b-	4ee-]
.	.	8f	.
.	.	[4b-	4dd
.	2f	4b-]	2cc
.	.	4a	.
=4	=4	=4	=4
1r	2B-	4d	8b-
.	.	.	8cc
.	.	4g	8dd
.	.	.	8b-
.	4A	8f	4cc
.	.	8g	.
.	4d	8a	4ff
.	.	8b-	.
=5	=5	=5	=5
1r	8c	4cc	4een
.	8B-	.	.
.	8A	4r	4cc
.	8G	.	.
.	4F	2r	8dd
.	.	.	8cc
.	[4B-	.	8dd
.	.	.	8ee-
=6	=6	=6	=6
1r	4B-]	4r	8ff
.	.	.	8cc
.	4A	4c	8ff
.	.	.	8f
.	2G	8d	8b-
.	.	8c	8a
.	.	8d	8b-
.	.	8en	8cc
=7	=7	=7	=7
1r	4F	8f	4a
.	.	8c	.
.	8r	4f	[4dd
.	8F	.	.
.	8G	4.e-	4dd]
.	8F	.	.
.	8G	.	[4cc
.	8A	16f	.
.	.	16e-	.
=8	=8	=8	=8
2r	8B-	4d	4cc]
.	8c	.	.
.	8d	4r	[4b-
.	8e-	.	.
2FF 2F	8f	4r	4b-]
.	8c	.	.
.	[4f	4a	4cc
=9	=9	=9	=9
4DD 4D	4f]	4b-	8dd
.	.	.	8cc
4GG 4G	4r	4b-	8dd
.	.	.	8een
2FF	8F	4a	8ff
.	8E-	.	8cc
.	8D	4b-	4ff
.	8C	.	.
=10	=10	=10	=10
4BB-	1r	4.b-	8gg
.	.	.	8ff
4E-	.	.	8gg
.	.	8cc	8aa
8D	.	4.dd	8bb-
8BB-	.	.	8ff
8D	.	.	[4bb-
8E-	.	8dd	.
=11	=11	=11	=11
8F	1r	2cc	4bb-]
8G	.	.	.
8A	.	.	[4aa
8F	.	.	.
8G	.	2b-	4aa]
8A	.	.	.
8B-	.	.	[4gg
8c	.	.	.
=12	=12	=12	=12
8d	1r	2a	4gg]
8D	.	.	.
8F	.	.	[4ff
8D	.	.	.
8E-	.	2g	4ff]
8F	.	.	.
8G	.	.	[4ee-
8A	.	.	.
=13	=13	=13	=13
8B-	1r	4f	4ee-]
8BB-	.	.	.
8D	.	8b-	[4dd
8BB-	.	8a	.
4.E-	.	8g	4dd]
.	.	8f	.
.	.	[4e-	8cc
8E-	.	.	8b-
=14	=14	=14	=14
2F	8r	8e-]	4a
.	8e-	8r	.
.	8d	4r	[4ff
.	8c	.	.
2G	8B-	2b-	4ff]
.	8d	.	.
.	8c	.	4een
.	8B-	.	.
=15	=15	=15	=15
4F	4c	4a	2ff
4r	4B-	4dd	.
4r	4A	8cc	2r
.	.	8b-	.
4C	[4c	8a	.
.	.	8g	.
=16	=16	=16	=16
8D	4c]	4f	1r
8C	.	.	.
8D	4B-	[4b-	.
8En	.	.	.
8F	4.f	4b-]	.
8C	.	.	.
[4F	.	4a	.
.	8d	.	.
=17	=17	=17	=17
4F]	8B-	2g	2r
.	8G	.	.
[4E-	8c	.	.
.	8B-	.	.
4E-]	8A	4f	4r
.	8F	.	.
4D	4r	8r	[4ff
.	.	8f	.
=18	=18	=18	=18
8E-	1r	8g	4ff]
8D	.	8f	.
4C	.	8g	[4ee-
.	.	8a	.
4BB-	.	8b-	4ee-]
.	.	8f	.
8r	.	[4b-	4dd
8BB-	.	.	.
=19	=19	=19	=19
8C	1r	4b-]	4.ee-
8BB-	.	.	.
8C	.	[4a-	.
8D	.	.	8ff
8E-	.	4a-]	4.b-
8BB-	.	.	.
[4E-	.	4g	.
.	.	.	8b-
=20	=20	=20	=20
4E-]	1r	8an	8cc
.	.	8g	8b-
4D	.	8a	8cc
.	.	8bn	8dd
4.C	.	8cc	8ee-
.	.	8g	8dd
.	.	[4cc	4ee-
8C	.	.	.
=21	=21	=21	=21
8G	2r	4cc]	4.dd
16F	.	.	.
16E-	.	.	.
8D	.	[4b-	.
8En	.	.	8dd
8F	4r	8b-]	[2cc
8C	.	8g	.
4F	8r	8a	.
.	8A	8c	.
=22	=22	=22	=22
1r	8B-	8d	4cc]
.	8A	8c	.
.	8B-	8d	4b-
.	8c	8en	.
.	8d	8f	4.a
.	8A	8e	.
.	8d	[4f	.
.	8c	.	16b-
.	.	.	16a
=23	=23	=23	=23
1r	8B-	4f]	4.g
.	8G	.	.
.	8c	[4e-	.
.	8B-	.	16a
.	.	.	16g
.	8A	4e-]	4.f
.	8F	.	.
.	8B-	[4d	.
.	8A	.	8f
=24	=24	=24	=24
1r	8G	4d]	4.e-
.	8B-	.	.
.	8A	[4c	.
.	8G	.	16f
.	.	.	16e-
.	8F#	4c]	2d
.	8D	.	.
.	[4G	4B-	.
=25	=25	=25	=25
2D	4G]	4A	2d
.	4F#	8r	.
.	.	8A	.
4BB-	4G	8B-	2g
.	.	8A	.
4E-	4r	8B-	.
.	.	8c	.
=26	=26	=26	=26
8D	1r	8d	4f#
8C	.	8A	.
8BB-	.	8G	4dd
8AA	.	8F#	.
4GG	.	8G	4b-
.	.	8f	.
4C	.	8g	4ee-
.	.	8a	.
=27	=27	=27	=27
8BB-	[2d	8dd	1r
8AA	.	8cc	.
8GG	.	8b-	.
8FF	.	8a	.
4EE-	8d]	4g	.
.	8Bn	.	.
4A-	8c	[4cc	.
.	8d	.	.
=28	=28	=28	=28
8G	8e-	8cc]	4r
8F	8d	8bn	.
8E-	8c	8cc	4gg
8D	8Bn	8dd	.
4C	8c	4g	4ee-
.	8B	.	.
4F	8c	4r	4aa-
.	8d	.	.
=29	=29	=29	=29
8E-	4G	4r	8gg
8D	.	.	8ff
8C	4r	[4g	8ee-
8BB-	.	.	8dd
4AA-	2r	8g]	4cc
.	.	8en	.
4D-	.	8f	[4ff
.	.	8g	.
=30	=30	=30	=30
4.C	1r	8a-	4ff]
.	.	8b-	.
.	.	[4cc	4een
8BB-	.	.	.
8AAn	.	8cc]	4.ff
8FF	.	8an	.
8GG	.	8b-	.
8AA	.	8cc	8ee-
=31	=31	=31	=31
8BB-	1r	4f	2dd
8C	.	.	.
8D	.	[4b-	.
8E-	.	.	.
8F	.	4b-]	4.cc
8c	.	.	.
[4f	.	4a	.
.	.	.	8cc
=32	=32	=32	=32
4f]	1r	8b-	8dd
.	.	8a	8cc
4e-	.	8b-	8dd
.	.	8cc	8ee-
4d	.	8dd	8ff
.	.	8f	8a
8r	.	4dd	[4ff
8DD	.	.	.
=33	=33	=33	=33
8EE-	1r	4g	4ff]
8DD	.	.	.
8EE-	.	[4cc	4ee-
8FF	.	.	.
8GG	.	4cc]	4.dd
8DD	.	.	.
[4GG	.	4b-	.
.	.	.	8dd
=34	=34	=34	=34
4GG]	1r	8cc	8ee-
.	.	8b-	8dd
4FF	.	8cc	8ee-
.	.	8dd	8ff
8EE-	.	8ee-	8gg
8FF	.	8g	8b-
8GG	.	[4ee-	4gg
8AA	.	.	.
=35	=35	=35	=35
8BB-	1r	4ee-]	4ff
8C	.	.	.
8D	.	4dd	4bb-
8E-	.	.	.
4F	.	4cc	4aa
4r	.	4r	4ddd
=36	=36	=36	=36
1r	1r	2ff	8ccc
.	.	.	8bb-
.	.	.	8aa
.	.	.	8gg
.	.	4dd	4ff
.	.	4gg	[4bb-
=37	=37	=37	=37
1r	4r	8ff	4.bb-]
.	.	8ee-	.
.	4f	8dd	.
.	.	8cc	8aa
.	8g	4b-	4bb-
.	8f	.	.
.	8g	[4ee-	4gg
.	8a	.	.
=38	=38	=38	=38
4r	8b-	4ee-]	4ff
.	8f	.	.
4B-	4b-	4b-	4dd
4A	2r	4.f	4cc
4d	.	.	[4ff
.	.	8f	.
=39	=39	=39	=39
8c	1r	4g	4.ff]
8B-	.	.	.
8A	.	8cc	.
8G	.	8b-	8een
4F	.	4.a	8ff
.	.	.	8ee
4B-	.	.	[4dd
.	.	8g	.
=40	=40	=40	=40
8A	1r	4a	8dd]
8G	.	.	8cc#
8F	.	4aa	8dd
8En	.	.	8een
4D	.	4a	4ff
4G	.	4g	4bb-
=41	=41	=41	=41
4.A	1r	8f	8aa
.	.	8en	8gg
.	.	8d	8ff
8A	.	8c#	8een
8B-	.	4d	4dd
8A	.	.	.
8B-	.	4b-	[4gg
8cn	.	.	.
=42	=42	=42	=42
8d	1r	4.a	4gg]
8A	.	.	.
4d	.	.	[4ff
.	.	8cc	.
4G	.	8b-	4ff]
.	.	8a	.
4B-	.	[4g	8een
.	.	.	8dd
=43	=43	=43	=43
4A	2r	8g]	4cc#
.	.	8a	.
4D	.	8f	[4dd
.	.	8en	.
4A	4a	4f	8dd]
.	.	.	[8dd
4AA	4e	4g	8dd]
.	.	.	8cc#
=44	=44	=44	=44
4D	4d	4f	8dd
.	.	.	8een
4r	4r	8dd	[4ff
.	.	8ccn	.
2r	2r	8bn	4ff]
.	.	8g	.
.	.	8a	8gg
.	.	8b	8ff
=45	=45	=45	=45
1r	1r	8cc	8ee-
.	.	8g	8dd
.	.	8cc	[4ee-
.	.	8b-	.
.	.	8a	4ee-]
.	.	8f	.
.	.	8g	8ff
.	.	8a	8ee-
=46	=46	=46	=46
2r	2r	8b-	8dd
.	.	8f	8cc
.	.	[4b-	8dd
.	.	.	16ee-
.	.	.	16dd
2F	4r	8b-]	2cc
.	.	8b-	.
.	4c	8a	.
.	.	8g	.
=47	=47	=47	=47
4D	8d	4f	2r
.	8c	.	.
4G	8d	4b-	.
.	8en	.	.
8F	2f	4a	2ff
8E-	.	.	.
8D	.	8b-	.
8C	.	8cc	.
=48	=48	=48	=48
4BB-	4f	4dd	2.r
4E-	4e-	4gg	.
4B-	8d	8ff	.
.	8c	8ee-	.
4r	8B-	8dd	4ff
.	8A	8cc	.
=49	=49	=49	=49
2.r	4G	4b-	8gg
.	.	.	8ff
.	4c	[4ee-	8gg
.	.	.	8aa
.	4B-	4ee-]	8bb-
.	.	.	8ff
8r	4r	4dd	[4bb-
8BB-	.	.	.
=50	=50	=50	=50
8C	1r	8ee-	4bb-]
8BB-	.	8dd	.
8C	.	8ee-	[4aa-
8D	.	8ff	.
8E-	.	4b-	4aa-]
8F	.	.	.
8G	.	8ee-	[4gg
8E-	.	8dd	.
=51	=51	=51	=51
8A-	1r	8cc	4gg]
8AA-	.	8b-	.
[4A-	.	8a-	8ff
.	.	8g	8ee-
4A-]	.	4f	8dd
.	.	.	8cc
4G	.	8g	[4b-
.	.	8f	.
=52	=52	=52	=52
4.c	1r	4.e-	8b-]
.	.	.	16a-
.	.	.	16g
.	.	.	[4a-
16d	.	16f	.
16c	.	16e-	.
8d	.	8f	8a-]
8B-	.	8d	8b-
4r	.	[4e-	8g
.	.	.	8a-
=53	=53	=53	=53
2BB-	1r	4e-]	2f
.	.	4d	.
4GG	.	8e-	2r
.	.	8g	.
4C	.	8f	.
.	.	8e-	.
=54	=54	=54	=54
8BB-	1r	8d	2b-
8AA-	.	8B-	.
8GG	.	8c	.
8FF	.	8d	.
4EE-	.	8e-	4g
.	.	8d	.
4AA-	.	8e-	4cc
.	.	8f	.
=55	=55	=55	=55
4GG	1r	4g	8b-
.	.	.	8a-
4BB-	.	4d	8g
.	.	.	8f
8C	.	4.e-	4e-
8BB-	.	.	.
8C	.	.	[4a-
8D	.	8f	.
=56	=56	=56	=56
8E-	1r	4B-	4a-]
8BB-	.	.	.
4E-	.	[4g	8r
.	.	.	8b-
4.AA-	.	4g]	8cc
.	.	.	8b-
.	.	4f	8cc
8BB-	.	.	8dd
=57	=57	=57	=57
2C	2r	8e-	2ee-
.	.	8f	.
.	.	8g	.
.	.	8an	.
4BB-	4r	4b-	4dd
4E-	4B-	4r	4gg
=58	=58	=58	=58
4D	2f	1r	8ff
.	.	.	8ee-
4F	.	.	8dd
.	.	.	8cc
8G	4d	.	4b-
8F	.	.	.
8G	4g	.	[4ee-
8A	.	.	.
=59	=59	=59	=59
8B-	4.f	2r	4ee-]
8F	.	.	.
[4B-	.	.	4dd
.	16g	.	.
.	16f	.	.
4B-]	8en	4r	4cc
.	8c	.	.
4A	4f	8r	[4ccc
.	.	8cc	.
=60	=60	=60	=60
8B-	1r	8dd	4ccc]
8A	.	8cc	.
8B-	.	8dd	[4bb-
8c	.	8een	.
8d	.	8ff	4bb-]
8A	.	8cc	.
8d	.	[4ff	4aa
8c	.	.	.
=61	=61	=61	=61
8B-	1r	4ff]	2gg
8G	.	.	.
8c	.	4een	.
8B-	.	.	.
8A	.	8r	4ff
8G	.	8f	.
8F	.	8a	[4cc
8En	.	8g	.
=62	=62	=62	=62
8D	1r	8f	4cc]
8C	.	8en	.
8D	.	8f	[4b-
8BB-	.	8g	.
4C	.	4e-	8b-]
.	.	.	8cc
4FF	.	[4f	8a
.	.	.	16b-
.	.	.	16a
=63	=63	=63	=63
4C	1r	4f]	8g
.	.	.	16a
.	.	.	16b-
4CC	.	[4e-	8cc
.	.	.	8b-
4FF	.	4e-]	8a
.	.	.	8f
4r	.	8r	[4ff
.	.	8d	.
=64	=64	=64	=64
1r	1r	8g	4ff]
.	.	8f	.
.	.	8g	[4ee-
.	.	8a	.
.	.	8b-	4ee-]
.	.	8f	.
.	.	[4b-	4dd
=65	=65	=65	=65
2F	1r	4b-]	2cc
.	.	4a	.
4D	.	4f	8b-
.	.	.	8cc
4G	.	4b-	8dd
.	.	.	8een
=66	=66	=66	=66
8F	1r	4a	8ff
8E-	.	.	8cc
8D	.	8r	4ff
8C	.	8a	.
4BB-	.	4dd	8gg
.	.	.	8ff
[4E-	.	4cc	8gg
.	.	.	8aa
=67	=67	=67	=67
4E-]	1r	4.b-	8bb-
.	.	.	8ff
4D	.	.	8bb-
.	.	8ff	8aa
2E-	.	8ee-	8gg
.	.	8dd	8ff
.	.	8cc	8ee-
.	.	8b-	8dd
=68	=68	=68	=68
4F	1r	4a	8cc
.	.	.	8f
8r	.	8r	[4ff
8D	.	8f	.
8E-	.	8g	4ff]
8D	.	8f	.
8E-	.	8g	4ee-
8F	.	8a	.
=69	=69	=69	=69
4BB-	1r	8b-	4dd
.	.	8f	.
8r	.	8r	[4bb-
8G	.	8b-	.
8A-	.	8cc	4bb-]
8G	.	8b-	.
8A-	.	8cc	4aa-
8B-	.	8dd	.
=70	=70	=70	=70
4E-	1r	8ee-	4gg
.	.	8b-	.
8r	.	[4cc	8r
8C	.	.	8ee-
8D	.	4cc]	8ff
8C	.	.	8ee-
8D	.	4b-	8ff
8E-	.	.	8gg
=71	=71	=71	=71
4F	1r	8a	4cc
.	.	8f	.
8r	.	[4ff	8r
8F	.	.	8aa
8G	.	4ff]	8bb-
8F	.	.	8aa
8G	.	[4ee-	8bb-
8A	.	.	8ccc
=72	=72	=72	=72
8B-	4r	4ee-]	[2ff
8F	.	.	.
8B-	8r	[4dd	.
8D	8f	.	.
8E-	8g	4dd]	4ff]
8D	8f	.	.
8E-	8g	4cc	[4ee-
8F	8a	.	.
=73	=73	=73	=73
8G	8b-	1r	4ee-]
8D	8f	.	.
8G	8b-	.	[4dd
8F	8a	.	.
8E-	8g	.	8dd]
8F	8f	.	16ee-
.	.	.	16dd
4G	[4e-	.	8cc
.	.	.	8b-
=74	=74	=74	=74
4F	8e-]	4r	4a
.	8e-	.	.
8r	8d	8r	[4ff
8F	8c	8a	.
8G	4.B-	8b-	4ff]
8F	.	8a	.
8G	.	8b-	[4ee-
8E-	8c	8g	.
=75	=75	=75	=75
4F	4c	4a	8ee-]
.	.	.	8ff
4B-	8d	[4b-	8dd
.	8e-	.	8cc
4F	8r	4b-]	4dd
.	4f	.	.
4FF	.	4a	4cc
.	8e-	.	.
=76	=76	=76	=76
8BB-	4d	1r	8b-
8C	.	.	8f
8D	8r	.	8b-
8BB-	8d	.	8a
4E-	8e-	.	8g
.	8B-	.	8d
8r	8c	.	[4e-
8C	8G	.	.
=77	=77	=77	=77
4FF 4F	4A	4c	8e-]
.	.	.	8f
4BB-	4F	[4B-	8d
.	.	.	8e-
!! Adagio
2FF	4.F	4B-]	2c
.	.	4A	.
.	8E-	.	.
=78	=78	=78	=78
1BB-	1D	1F	1B-
====	====	====	====
*-	*-	*-	*-
